app/img/contact/ic_phone_1.svg

<svg width="29" height="28" viewBox="0 0 29 28" fill="none" xmlns="http://www.w3.org/2000/svg">
    <path d="M27.0258 19.0384L21.6916 16.2938C20.532 15.6985 19.0742 15.9961 18.2459 17.0543L16.8213 18.8731C15.4298 18.0795 14.1708 17.1866 12.7792 15.7647C11.3214 14.3097 10.46 13.0861 9.63173 11.6311L11.454 10.2092C12.481 9.38246 12.8124 7.9605 12.216 6.77004L9.46607 1.47908C9.10162 0.784639 8.47212 0.288607 7.7101 0.0901958C6.94807 -0.108215 6.15291 0.024071 5.49028 0.453962L2.11085 2.70262C1.01751 3.43012 0.421149 4.65365 0.487413 5.97639C0.586807 7.36526 0.71933 8.42346 0.918119 9.18403C1.9452 13.1523 4.39695 17.2197 7.84263 20.6588C11.2883 24.0979 15.3635 26.545 19.3393 27.5701C20.1013 27.7685 21.1947 27.9008 22.553 28C22.6193 28 22.7187 28 22.785 28C24.0108 28 25.1705 27.3717 25.8331 26.3466L28.0529 22.9405C28.4836 22.2792 28.583 21.4855 28.3842 20.758C28.1854 20.0305 27.7216 19.4022 27.0258 19.0384ZM26.3963 21.8823L24.1765 25.2884C23.8452 25.7844 23.2819 26.0821 22.6856 26.049C21.4597 25.9829 20.4658 25.8505 19.8363 25.6852C16.2249 24.7593 12.4479 22.4776 9.26729 19.2699C6.05352 16.0623 3.80056 12.3256 2.83975 8.72109C2.67409 8.09279 2.54157 7.10072 2.47531 5.87718C2.44218 5.28195 2.70723 4.71979 3.20421 4.3891L6.58361 2.14045C6.74927 2.04124 6.88182 2.00817 7.01434 2.00817C7.0806 2.00817 7.14686 2.00818 7.21312 2.04125C7.34565 2.07431 7.57757 2.17352 7.7101 2.43807L10.46 7.72903C10.6257 8.05972 10.5263 8.45653 10.2612 8.68801L7.11373 11.1351L7.51132 11.8626C8.53839 13.7806 9.53234 15.3348 11.4208 17.1866C13.2431 19.0054 14.8334 20.0305 16.6888 21.0226L17.4177 21.4194L19.9025 18.2448C20.1344 17.9472 20.532 17.881 20.8633 18.0464L26.1975 20.7911C26.3963 20.8903 26.5288 21.0556 26.5951 21.2871C26.562 21.4855 26.5289 21.717 26.3963 21.8823Z"
          fill="#7CEA57"/>
</svg>

<svg width="29" height="28" fill="none" xmlns="http://www.w3.org/2000/svg"><path d="m27.026 19.038-5.334-2.744a2.778 2.778 0 0 0-3.446.76l-1.425 1.82c-1.391-.794-2.65-1.687-4.042-3.11-1.458-1.454-2.319-2.678-3.147-4.133l1.822-1.422a2.798 2.798 0 0 0 .762-3.439l-2.75-5.29A2.748 2.748 0 0 0 7.71.09a2.77 2.77 0 0 0-2.22.364L2.11 2.703C1.019 3.43.422 4.653.488 5.976c.1 1.39.232 2.447.431 3.208 1.027 3.968 3.479 8.036 6.925 11.475 3.445 3.439 7.52 5.886 11.496 6.911.762.198 1.856.33 3.214.43h.232a3.646 3.646 0 0 0 3.048-1.653l2.22-3.407c.43-.66.53-1.455.331-2.182-.199-.727-.662-1.356-1.358-1.72Zm-.63 2.844-2.22 3.406a1.689 1.689 0 0 1-1.49.761c-1.226-.066-2.22-.198-2.85-.364-3.611-.926-7.388-3.207-10.569-6.415-3.213-3.208-5.466-6.944-6.427-10.55-.166-.628-.298-1.62-.365-2.844a1.656 1.656 0 0 1 .73-1.488L6.583 2.14a.803.803 0 0 1 .43-.132.42.42 0 0 1 .2.033.76.76 0 0 1 .496.397l2.75 5.291a.806.806 0 0 1-.199.959l-3.147 2.447.397.728c1.027 1.918 2.021 3.472 3.91 5.324 1.822 1.818 3.412 2.843 5.268 3.836l.729.396 2.485-3.174c.231-.298.629-.364.96-.199l5.335 2.745c.198.1.33.265.397.496-.033.198-.066.43-.199.595Z" fill="#7CEA57"/></svg>
